public/static/img/bank/card_icon.svg

<svg xmlns="http://www.w3.org/2000/svg" width="22" height="22" viewBox="0 0 22 22" fill="none">
  <path d="M20.6293 7.04043V5.39258C20.6293 4.58477 19.9762 3.93164 19.1684 3.93164H2.83594C2.02813 3.93164 1.375 4.58477 1.375 5.39258V7.04043C1.375 7.18223 1.49102 7.29824 1.63281 7.29824H20.3715C20.5133 7.29824 20.6293 7.18223 20.6293 7.04043ZM20.3715 8.66465H1.63281C1.49102 8.66465 1.375 8.78066 1.375 8.92246V17.3078C1.375 18.1156 2.02813 18.7687 2.83594 18.7687H19.1684C19.9762 18.7687 20.6293 18.1156 20.6293 17.3078V8.92246C20.6293 8.78066 20.5133 8.66465 20.3715 8.66465ZM10.9979 14.0508L10.6047 16.2809C10.5832 16.4033 10.4758 16.4936 10.3512 16.4936H9.50039C9.33926 16.4936 9.21895 16.3496 9.24687 16.1906L9.64004 13.9605C9.66152 13.8381 9.76895 13.7479 9.89355 13.7479H10.7443C10.9055 13.75 11.0258 13.8939 10.9979 14.0508ZM13.75 14.0508L13.3568 16.2809C13.3354 16.4033 13.2279 16.4936 13.1033 16.4936H12.2525C12.0914 16.4936 11.9711 16.3496 11.999 16.1906L12.3922 13.9605C12.4137 13.8381 12.5211 13.7479 12.6457 13.7479H13.4965C13.6576 13.75 13.7779 13.8939 13.75 14.0508ZM17.875 14.0508L17.4818 16.2809C17.4604 16.4033 17.3529 16.4936 17.2283 16.4936H15.0047C14.8436 16.4936 14.7232 16.3496 14.7512 16.1906L15.1443 13.9605C15.1658 13.8381 15.2732 13.7479 15.3979 13.7479H17.6215C17.7805 13.75 17.9029 13.8939 17.875 14.0508Z" fill="#171717"/>
</svg>

<svg xmlns="http://www.w3.org/2000/svg" width="22" height="22" fill="none"><path d="M20.63 7.04V5.393a1.46 1.46 0 0 0-1.462-1.461H2.836a1.46 1.46 0 0 0-1.461 1.46V7.04c0 .142.116.258.258.258h18.739a.259.259 0 0 0 .257-.258Zm-.258 1.625H1.632a.259.259 0 0 0-.257.257v8.386c0 .808.653 1.46 1.46 1.46h16.333a1.46 1.46 0 0 0 1.461-1.46V8.922a.259.259 0 0 0-.258-.257Zm-9.374 5.386-.393 2.23a.258.258 0 0 1-.254.213h-.85a.257.257 0 0 1-.254-.303l.393-2.23a.258.258 0 0 1 .254-.213h.85a.259.259 0 0 1 .254.303Zm2.752 0-.393 2.23a.258.258 0 0 1-.254.213h-.85a.257.257 0 0 1-.254-.303l.393-2.23a.258.258 0 0 1 .254-.213h.85a.259.259 0 0 1 .254.303Zm4.125 0-.393 2.23a.258.258 0 0 1-.254.213h-2.223a.257.257 0 0 1-.254-.303l.393-2.23a.258.258 0 0 1 .254-.213h2.224a.26.26 0 0 1 .253.303Z" fill="#171717"/></svg>
